X:90
T:Momfrina. RH.090
T:Italian Montferina,aka. RH.090
T:Rowling Bet, aka. RH.090
R:Jig
S:Rev.R.Harrison’s MS,c1815,Cumbria
N:This version is just missing the vital note.
O:England
A:Temple Sowerby,Cumbria
Z:vmp.Simon Wilson. Review PJH, 2008.
M:6/8
L:1/8
Q:3/8=120
K:G
|:D|GAB BcA|AGG G2G|EGA ABF|AGG G2D|!
GAB BcA|AGG G2G|FGA ABF|AGG G2:|!
|:g|fga afc|cBc d2g|gfg afc|cBc d2g|!
gfg gfg|efg gfe|dBd cAF|AGG G2:|

